X: 1
T: Lintunen (d/C)
O: Finland, Estonia
R: polka
M: 2/4
L: 1/8
K: Dm
|: "Gm"DG GG | G2 GG | "A7"GE FG | "Dm"F2 D2 :|
K: C
|: "G7"D>E FD | "C"CC EC | "G7"B,2 DD | "C"C2 C2 :|
